X: 448
T: Xiangni xiangzai xinlitau
%%abc-version 2.0
%%abcx-abcm2ps-target-version 5.9.1 (29 Sep 2008)
%%abc-creator hum2abc beta
%%abcx-conversion-date 2013/10/02 07:52:30
%%abc-edited-by Helmut Schaffrath
%%humdrum-veritas 2156231018
%%humdrum-veritas-data 3554996496
%%continueall 1
%%barnumbers 0
L: 1/16
M: 2/4
K: Ab
a2 a c' b2 a b [I:setbarnb 1]| 
c'2 c' f' e'2 c' b | 
a2> e2 f2 e c | 
B8 | 
a2 a c' b2 a b | 
c'2 c' f' e'2 c' b | 
a2> e2 f2 e c | 
e8 |]  



